X: 164
T: No_87_In_the_South.krn
%%abc-version 2.0
%%abcx-abcm2ps-target-version 5.9.1 (29 Sep 2008)
%%abc-creator hum2abc beta
%%abcx-conversion-date 2020/08/10 18:54:57
%%gracespace 0 6 6
%%humdrum-veritas 2136580723
%%humdrum-veritas-data 868066431
%%linebreak <none>
%%barnumbers 0
L: 1/8
M: 2/4
%%staves {1 2}
V: 1 clef=bass
V: 2 clef=bass
K: G
[V:1] [K:clef=bass][M:2/4]D7/B,/ | 
[V:2] [K:clef=bass][M:2/4](3!accent!G,, z G,, (3!accent!G,, z G,, | 
[V:1] D>B, B,/B,/A,/G,/ | 
[V:2] (3!accent!G,, z G,, (3!accent!G,, z G,, | 
[V:1] G,4 | 
[V:2] z4 | 
[V:1] B,/B,/A,/G,/G,2 | 
[V:2] z4 | 
[V:1] G,3E, | 
[V:2] z4 | 
[V:1] G,2G,2 ||  
[V:2] z4 ||  
[V:1] [M:3/4]G,6 ||  
[V:2] [M:3/4]z6 ||  
[V:1] [M:2/4]D7/B,/ | 
[V:2] [M:2/4]z4 | 
[V:1] D>B, B,/B,/A,/G,/ | 
[V:2] z4 | 
[V:1] G,4 | 
[V:2] z4 | 
[V:1] B,/B,/A,/G,/G,2 | 
[V:2] z4 | 
[V:1] G,3E, | 
[V:2] z4 | 
[V:1] (3G,G,G,E,2 | 
[V:2] z4 | 
[V:1] D,3B,, | 
[V:2] z4 | 
[V:1] D,2D,2 | 
[V:2] z4 | 
[V:1] G,3E, | 
[V:2] z4 | 
[V:1] (3G,G,G,E,2 | 
[V:2] z4 | 
[V:1] D,3B,, | 
[V:2] z4 | 
[V:1] (3E,D,D, (3D,D,B,, ||  
[V:2] z4 ||  
[V:1] [M:3/4]G,,>G,,G,,3G,, | 
[V:2] [M:3/4]z6 | 
[V:1] G,,6 ||  
[V:2] z6 ||  
[V:1] [M:2/4]G,>G,G,2 ||  
[V:2] [M:2/4]z4 ||  
[V:1] [M:3/4]G,/G,/-G, B,B,G,2 ||  
[V:2] [M:3/4]z6 ||  
[V:1] [M:2/4]G,>G,G,2 ||  
[V:2] [M:2/4]z4 ||  
[V:1] [M:3/4]G,>E, G,>E,E,2 ||  
[V:2] [M:3/4]z6 ||  
[V:1] [M:2/4]D,3B,, | 
[V:2] [M:2/4]z4 | 
[V:1] D,2D,2 | 
[V:2] z4 | 
[V:1] G,3E, | 
[V:2] z4 | 
[V:1] G,2E,2 | 
[V:2] z4 | 
[V:1] D,3B,, | 
[V:2] z4 | 
[V:1] (3E,D,D, (3D,D,B,, ||  
[V:2] z4 ||  
[V:1] [M:3/4]G,,>G,,G,,3G,, | 
[V:2] [M:3/4]z6 | 
[V:1] G,,6 |]  
[V:2] z6 |]  


